X: 80
M: 2/4
L: 1/8
K: F
[| F G A B | c2 (dB) | Az Gz | F2 z2 |
[| F G A B | c2 (dB) | Az Gz | F2 z2 |
c> B A c | B A G z | c> B A> c |


